svg/color/koz.svg

<svg viewBox="0 0 320 320" xmlns="http://www.w3.org/2000/svg"><circle fill="#2d598a" cx="160" cy="160" r="160"/><path fill="#fff" d="M189.52 224.53l-36-45.72-13.32 14.22v31.5h-35.28v-126h35.28v52.38l48.78-52.38h39.24l-51.48 55.8 54.18 70.2h-41.4z"/></svg>

<svg viewBox="0 0 320 320" xmlns="http://www.w3.org/2000/svg"><circle fill="#2d598a" cx="160" cy="160" r="160"/><path fill="white" d="M189.52 224.53L153.52 178.81L140.20 193.03L140.20 224.53L104.92 224.53L104.92 98.53L140.20 98.53L140.20 150.91L188.98 98.53L228.22 98.53L176.74 154.33L230.92 224.53L189.52 224.53Z"/></svg>
